X: 136
T:Untitled. HA.135
M:9/4
L:1/8
Q:200
S:Henry Atkinson's original MS,Hartburn,N'umberland,1694.
O:England
A:Hartburn,Northumberland
H:1/8
Z:vmp.Chris Partington.Jan.2004
K:G
"3 sharps,No Time Sig., Barring as in MS"d3ef2 f3ef2 f3ef2|\
f3ef2 f3ef2 d4A2|c3de2 e3de2 c4A2|!
d3ef2 e3fg2| f2 gfed|edcBA2|!
dcdefd|edefge|fgagfe|e4d2:|!
|:agfga2|agfga2|a2bagf|e4A2|!
agfga2|agfga2|a2bagf|e4d2:|]
